assets/image/cars-img1.svg

<svg width="40" height="40" viewBox="0 0 40 40" fill="none" xmlns="http://www.w3.org/2000/svg">
<g clip-path="url(#clip0_31_442)">
<path d="M40 20.8335C40 18.5368 38.1317 16.6668 35.8333 16.6668H34.6017L26.55 5.11683C26.166 4.5662 25.6547 4.11649 25.0595 3.80599C24.4643 3.4955 23.803 3.3334 23.1317 3.3335H9.80167C8.95649 3.33596 8.13187 3.59427 7.43632 4.07443C6.74078 4.55458 6.20692 5.23408 5.905 6.0235L1.50667 17.6235H1.51C1.03761 18.0145 0.657339 18.5049 0.396323 19.0598C0.135307 19.6146 -1.98649e-05 20.2203 2.18718e-09 20.8335L2.18718e-09 30.0002H3.33333V31.6668C3.33333 34.4235 5.57667 36.6668 8.33333 36.6668C11.09 36.6668 13.3333 34.4235 13.3333 31.6668V30.0002H26.6667V31.6668C26.6667 34.4235 28.91 36.6668 31.6667 36.6668C34.4233 36.6668 36.6667 34.4235 36.6667 31.6668V30.0002H40V20.8335ZM25.1817 6.07183L32.5683 16.6668H16.6667V5.00016H23.1317C23.9483 5.00016 24.715 5.40016 25.1817 6.07183ZM7.46333 6.6135C7.64439 6.1401 7.96452 5.73262 8.3816 5.44465C8.79868 5.15668 9.29317 5.00172 9.8 5.00016H14.9983V16.6668H4.16667C3.99055 16.6675 3.81466 16.6792 3.64 16.7018L7.46333 6.6135ZM11.665 31.6668C11.665 33.5052 10.17 35.0002 8.33167 35.0002C6.49333 35.0002 4.99833 33.5052 4.99833 31.6668V30.0002H11.6667L11.665 31.6668ZM34.9983 31.6668C34.9983 33.5052 33.5033 35.0002 31.665 35.0002C29.8267 35.0002 28.3317 33.5052 28.3317 31.6668V30.0002H34.9983V31.6668ZM38.3317 28.3335H1.66667V20.8335C1.66667 19.4552 2.78833 18.3335 4.16667 18.3335H35.8333C37.2117 18.3335 38.3333 19.4552 38.3333 20.8335L38.3317 28.3335Z" fill="white"/>
</g>
<defs>
<clipPath id="clip0_31_442">
<rect width="40" height="40" fill="white"/>
</clipPath>
</defs>
</svg>

<svg width="40" height="40" fill="none" xmlns="http://www.w3.org/2000/svg"><g clip-path="url(#a)"><path d="M40 20.834a4.171 4.171 0 0 0-4.167-4.167h-1.231L26.55 5.117a4.167 4.167 0 0 0-3.418-1.784H9.802a4.185 4.185 0 0 0-3.897 2.69l-4.398 11.6h.003A4.167 4.167 0 0 0 0 20.834V30h3.333v1.667c0 2.756 2.244 5 5 5 2.757 0 5-2.244 5-5V30h13.334v1.667c0 2.756 2.243 5 5 5 2.756 0 5-2.244 5-5V30H40v-9.166ZM25.182 6.072l7.386 10.595H16.667V5h6.465c.816 0 1.583.4 2.05 1.072Zm-17.719.542A2.51 2.51 0 0 1 9.8 5h5.198v11.667H4.167c-.176 0-.352.012-.527.035L7.463 6.613Zm4.202 25.053A3.337 3.337 0 0 1 8.332 35a3.337 3.337 0 0 1-3.334-3.333V30h6.669l-.002 1.667Zm23.333 0A3.337 3.337 0 0 1 31.665 35a3.337 3.337 0 0 1-3.333-3.333V30h6.666v1.667Zm3.334-3.334H1.667v-7.5c0-1.378 1.121-2.5 2.5-2.5h31.666c1.379 0 2.5 1.122 2.5 2.5l-.001 7.5Z" fill="#fff"/></g><defs><clipPath id="a"><path fill="#fff" d="M0 0h40v40H0z"/></clipPath></defs></svg>
